X:1
T:Title
%%score ( 1 2 ) ( 3 4 )
L:1/8
Q:1/4=90
M:4/4
K:F
V:1 treble nm="Strings 1, Soprano"
V:2 treble 
V:3 bass nm="Strings 1, Bass"
V:4 bass 
V:1
 z4 z2 F2 | [FA]2 [FA]2 [FA]2 [FG]F | [EG]3 C C2 C-[CE] | [CF]2 [CF]2 [CG]2 F2 | [Ec]6 [GB]2 | %5
 [FA]2 [FA]2 [FA]2 [FG]F | [EG]3 C C2 FG | [FA]2 [FA]2 [EG]2 [EG]2 | [CF]6 [Fc]2 | %9
 c2- [Ec-]2 [Fc][EB][FA][GB] | [Ac]2 [FA]2 [FA]2 F2 | [EG]2 CC [CF]2 [EG]2 | [FA]2 [Ac]4 [Fc]2 | %13
 c2- [Ec-][Ec-] [Fc][Fc][Fd][Fc] | [Fc]2 [FA]2 [FA]2 [CF][CF] | [DG]2 [GB]2 [FA]3 [CG] | %16
 [CF]6 z2 |] %17
V:2
 x8 | x8 | z4 z2 .D2 | x8 | x8 | x8 | x8 | x8 | x8 | F2 z2 z4 | x8 | x8 | x8 | F2 z2 z4 | x8 | x8 | %16
 x8 |] %17
V:3
 z4 z2 [F,A,]2 | [F,C]2 [F,C]2 [F,C]2 B,A, | [C,B,]3 [C,E,] [C,E,]2 [C,B,]2 | %3
w: 1.~I~|know~ on~ Whom~ my~ *|faith~ is~ fixed,~ I~|
 [F,A,]2 [F,A,]2 [F,B,]2 [F,A,]2 | [C,G,]6 [E,C]2 | [F,C]2 [F,C]2 [F,C]2 B,A, | %6
w: know~ in~ Whom~ I~|trust;~ I~|know~ that~ Christ~ a *|
 [C,B,]3 [C,B,] [C,B,]2 [D,=B,]2 | [C,C]2 [C,C]2 [C,B,]2 [C,B,]2 | [F,A,]6 [F,A,]2 | %9
w: bides~ in~ me,~ And~|all~ His~ ways~ are~|just.~ *|
 [F,A,]2 [G,B,]2 [A,C][G,C][F,C][F,C] | [F,C]2 [F,C]2 [F,C]2 [F,A,]2 | %11
w: ||
 [C,B,]2 [C,B,][C,B,] [A,,C]2 [C,C]2 | [F,C]2 [F,F]2 [F,F]2 [F,A,]2 | %13
w: ||
 [F,A,]2 [G,B,][G,B,] [A,C][A,C]B,[F,A,] | [F,A,]2 [F,C]2 [F,C]2 [F,A,][F,A,] | %15
w: ||
 [B,,B,]2 [G,,D]2 [C,C]3 [C,B,] | [F,,F,A,]6 z2 |] %17
w: ||
V:4
 x8 | z4 z2 F,2 | x8 | x8 | x8 | z4 z2 F,2 | x8 | x8 | x8 | x8 | x8 | x8 | x8 | x8 | x8 | x8 | %16
 x8 |] %17

